X: 1
T: Star Of The County Down
R: jig
M: 6/8
L: 1/8
K: Emin
B,D|DEE EDE|GEG AGA|BAG EDB,|DED DB,D|
DEE EDE|GEG AGA|BAG EGD|DEE EGB||
dBB BAG|ABA AGA|BAG EDB,|DED DB,D|
DEE EDE|GEG AGA|BAG EGD|DEE E||
